<?xml version="1.0" encoding="UTF-8"?>
<map version="1.10" tiledversion="1.12.1" orientation="orthogonal" renderorder="right-down" width="75" height="75" tilewidth="32" tileheight="32" infinite="0" nextlayerid="7" nextobjectid="24">
 <tileset firstgid="1" source="../testMap/grass.tsx"/>
 <tileset firstgid="65" source="../testMap/props.tsx"/>
 <layer id="1" name="Ground" width="75" height="75">
  <data encoding="csv">
1,28,25,22,2,27,20,11,27,21,20,21,25,18,9,25,12,1,10,9,18,11,2,17,3,4,4,4,3,2,25,25,9,12,27,20,17,18,19,4,1,3,28,28,4,11,2,17,9,1,25,25,32,25,25,17,9,10,9,10,4,28,17,11,17,2,20,9,19,1,4,26,28,17,3,
26,1,20,23,9,10,2,4,11,28,17,9,4,4,28,1,10,9,12,2,19,17,27,12,19,15,30,17,27,10,30,11,26,19,27,10,10,9,4,17,25,12,10,10,25,1,28,19,13,26,4,10,25,19,3,28,11,19,18,10,11,12,28,26,3,9,12,11,17,26,9,3,18,9,1,
25,11,10,2,2,12,26,27,2,9,17,3,19,28,17,28,17,11,18,3,20,2,2,14,20,11,2,17,9,17,1,20,27,17,1,20,18,3,3,13,12,20,27,11,12,4,27,4,9,18,9,17,15,10,3,12,27,28,2,1,25,9,19,23,5,25,25,20,28,25,10,9,11,27,10,
10,19,25,12,9,25,4,25,18,12,26,19,17,11,26,18,28,12,26,1,8,25,12,4,2,18,27,20,12,1,14,4,17,27,10,1,1,18,25,10,9,12,2,31,19,25,20,18,1,11,10,20,7,27,9,2,11,17,28,17,25,17,20,9,12,26,20,1,10,10,19,26,26,20,9,
20,29,10,14,2,25,26,12,3,2,1,28,12,28,18,26,26,12,2,25,26,11,25,3,4,18,26,1,12,10,4,4,17,1,26,1,26,2,27,2,17,12,25,27,4,20,4,15,4,19,20,10,26,25,19,30,10,26,2,4,18,26,10,20,20,7,1,10,28,1,3,15,28,1,10,
3,22,3,19,1,3,4,9,4,12,1,6,5,12,26,11,11,9,18,13,26,26,3,28,5,3,4,20,28,10,9,27,12,2,3,28,12,12,17,6,4,19,9,28,9,1,17,26,1,11,1,9,3,12,25,9,28,26,25,10,19,1,10,12,26,27,1,12,17,17,28,1,4,28,29,
15,20,9,9,12,27,19,2,4,1,17,20,20,27,11,10,2,26,2,18,9,1,28,18,22,28,19,26,4,20,25,6,27,17,25,28,25,4,28,9,12,1,3,28,20,19,31,17,20,27,3,28,27,14,12,27,9,27,1,12,12,10,3,10,10,31,22,28,10,9,26,4,25,4,12,
4,19,19,29,3,28,27,25,26,18,10,19,26,17,18,32,3,26,18,25,16,1,19,12,27,17,11,27,28,17,8,11,9,11,11,28,12,2,18,18,6,3,28,26,10,9,28,2,27,4,12,1,4,25,3,28,10,4,4,2,1,17,20,18,2,30,12,26,20,26,12,11,25,11,28,
19,26,24,28,25,2,1,26,25,19,2,1,25,22,18,10,3,12,4,10,9,19,25,2,27,1,11,25,9,18,11,9,11,17,12,26,26,3,18,20,18,28,31,20,1,25,17,18,9,2,26,27,3,9,17,10,11,12,19,12,2,11,10,28,10,10,3,25,20,10,27,11,19,17,27,
15,2,17,19,1,12,14,15,22,11,27,3,7,9,28,3,26,20,19,10,19,11,7,10,20,20,4,11,12,10,18,11,26,11,1,26,11,17,4,10,28,11,27,27,15,18,25,3,18,12,27,12,19,10,20,10,18,4,27,4,3,22,18,27,2,19,4,29,7,3,19,18,25,12,4,
19,23,28,19,27,17,11,28,18,11,11,27,12,11,27,9,23,18,26,17,9,20,28,11,9,20,1,26,11,4,3,23,3,15,19,17,12,17,4,2,12,10,1,19,26,28,4,3,32,9,1,9,20,17,2,11,12,18,9,18,28,20,11,12,10,11,4,3,17,26,27,1,27,2,28,
14,9,2,25,4,6,1,11,20,10,11,9,4,11,4,3,10,2,2,1,25,20,10,11,27,2,19,20,29,4,4,18,15,4,25,3,20,26,17,9,3,10,10,19,9,27,1,1,27,2,14,4,17,10,2,26,25,21,12,10,12,20,26,25,10,27,10,17,26,28,28,1,25,32,2,
1,9,12,11,29,4,4,28,30,17,20,25,27,26,9,20,2,16,7,4,9,27,18,21,31,26,18,3,19,20,2,19,9,2,17,26,17,26,30,17,10,9,12,26,26,17,17,26,28,26,26,3,28,11,11,10,25,18,17,26,8,19,19,12,26,17,20,9,20,9,26,28,3,9,6,
12,9,28,17,12,4,26,9,18,11,19,17,27,11,18,3,10,12,10,17,20,11,1,11,24,9,4,26,19,11,4,27,25,9,3,4,9,10,11,9,25,11,25,17,10,3,1,18,27,17,17,26,4,20,11,11,19,27,19,3,3,19,28,11,4,26,9,2,17,9,27,3,26,4,9,
26,11,25,19,16,10,28,12,1,20,9,10,27,19,29,28,20,17,12,17,2,20,21,19,17,11,26,18,17,25,12,2,26,25,17,14,5,26,4,11,1,10,9,27,19,10,20,1,1,17,5,25,28,19,26,12,19,10,26,22,32,4,27,19,2,28,4,2,18,9,23,19,3,19,17,
25,11,8,31,26,12,6,9,9,12,12,17,27,1,10,18,12,27,4,26,12,27,11,19,1,19,2,11,18,18,9,12,26,28,28,11,25,9,9,2,18,10,1,18,11,11,1,27,2,12,17,18,6,9,26,11,25,12,19,18,9,19,28,3,27,10,25,26,18,2,4,26,13,1,17,
1,4,27,19,25,1,4,25,27,12,23,10,25,12,25,26,4,26,11,2,24,18,29,27,27,28,4,1,2,28,26,12,18,17,12,2,2,9,19,18,16,17,11,1,11,23,18,9,10,3,25,19,3,25,3,20,17,15,23,12,25,19,27,3,1,26,9,25,28,19,9,3,25,9,19,
4,1,19,18,18,26,27,2,19,18,8,28,6,26,3,20,9,22,25,28,9,18,20,21,1,12,1,20,12,18,28,13,20,11,27,15,20,4,20,27,2,20,3,9,13,28,9,19,25,26,27,3,28,9,10,20,19,13,2,18,19,3,28,3,9,1,18,17,27,27,16,3,19,3,12,
25,27,20,29,27,10,11,25,26,9,27,25,11,25,1,19,1,12,26,31,10,26,9,20,27,10,12,31,12,9,4,17,28,25,9,19,1,1,18,12,11,14,3,4,17,1,27,23,17,3,25,20,15,19,27,4,25,28,19,10,20,26,2,12,19,27,2,28,17,1,1,11,25,3,10,
26,26,12,18,26,9,3,18,9,18,12,17,3,1,9,20,28,19,25,10,12,1,3,12,25,21,18,10,28,4,2,4,9,31,10,11,13,4,10,26,12,1,28,19,4,25,17,17,26,26,28,27,9,32,17,25,7,3,12,25,32,18,12,20,17,25,3,3,17,28,25,2,18,28,9,
28,26,17,1,12,17,17,16,12,28,20,12,3,25,25,4,3,12,28,10,3,10,10,18,19,18,11,20,11,26,1,20,27,18,17,17,9,28,20,4,5,11,14,10,27,27,10,20,28,9,20,17,25,14,4,11,26,26,2,26,3,18,20,2,3,27,10,19,10,18,28,20,17,13,20,
11,10,11,25,18,28,9,12,10,2,28,18,12,12,28,12,27,12,11,3,25,1,20,9,1,31,17,11,19,1,12,26,19,20,1,19,17,3,27,20,3,9,1,27,3,28,26,9,3,26,20,2,19,19,9,11,10,3,11,18,4,11,26,17,29,31,20,10,31,20,27,18,11,2,10,
19,12,27,23,18,25,20,10,18,19,12,6,1,10,12,18,17,12,19,8,2,9,25,18,11,17,11,19,9,13,28,4,3,19,10,20,27,2,28,11,30,10,4,21,17,17,3,20,10,4,31,11,2,19,2,17,18,18,18,10,25,17,12,12,19,27,26,12,20,20,20,28,28,20,25,
16,26,16,16,10,30,12,19,28,28,17,10,18,2,9,9,3,19,11,9,3,19,26,18,4,12,19,6,18,13,19,19,1,2,28,5,16,11,12,10,2,19,17,20,20,4,20,25,3,1,10,10,27,28,11,2,27,6,4,27,18,29,1,4,20,11,26,17,32,17,12,9,28,19,1,
4,12,20,25,29,11,3,18,2,10,17,27,26,12,18,2,10,13,11,5,19,19,28,10,28,12,4,2,12,12,9,12,1,3,14,10,27,1,28,26,22,9,4,26,17,9,17,19,28,26,27,25,11,10,12,11,19,1,28,19,32,11,29,19,25,1,32,20,10,2,1,4,10,4,26,
11,9,10,25,26,28,20,10,10,12,9,2,4,28,26,1,1,8,26,1,12,4,11,4,28,28,20,28,20,18,2,18,17,25,7,11,19,24,11,25,28,11,20,28,26,17,26,4,12,32,28,17,3,2,11,2,12,28,19,25,20,27,12,2,18,20,17,13,1,11,19,19,4,2,20,
4,4,1,12,27,20,28,4,27,32,18,25,27,22,26,1,19,18,23,6,19,1,17,2,20,26,15,18,9,20,18,17,25,27,26,9,8,25,2,4,26,1,20,2,9,5,28,22,1,25,1,12,19,26,17,20,19,19,11,20,24,19,28,28,27,11,4,11,12,4,3,17,11,4,26,
25,19,28,9,27,27,11,9,30,14,11,4,19,18,3,1,2,31,18,12,10,8,4,1,28,20,20,12,7,12,4,9,12,17,18,28,23,17,10,17,27,11,9,4,18,2,13,10,9,26,3,9,18,17,10,4,12,17,20,9,4,2,5,12,28,23,4,2,24,3,12,29,30,26,27,
3,4,16,2,2,10,19,3,4,1,1,17,27,17,8,8,9,10,4,20,3,11,1,28,4,20,11,25,2,30,2,4,3,26,3,2,18,8,3,20,4,17,1,10,26,18,26,9,4,17,9,28,1,27,17,4,18,20,20,31,4,4,2,25,10,2,14,1,11,18,25,1,27,24,20,
11,27,26,11,23,2,17,10,17,26,17,12,15,12,5,17,27,4,28,10,9,11,17,10,4,17,30,28,11,1,18,19,10,28,17,17,19,8,24,27,12,18,28,10,17,9,10,9,1,27,10,9,3,2,25,9,18,2,25,10,14,19,10,3,10,14,25,12,8,18,7,25,14,25,28,
2,27,12,12,11,20,11,9,12,25,17,6,26,12,2,3,25,1,1,1,4,9,10,2,3,9,10,16,26,19,17,21,4,28,10,25,26,20,17,19,2,12,24,4,28,12,19,17,20,9,25,27,1,10,12,19,17,27,18,22,17,28,2,18,26,17,22,3,26,3,3,9,27,19,20,
31,25,28,10,1,9,27,11,20,9,26,19,12,2,8,9,12,4,12,2,26,18,26,3,25,20,3,12,3,17,12,26,14,19,11,10,12,1,4,18,1,4,20,4,4,25,11,4,4,1,9,3,18,9,3,19,27,25,3,12,18,8,28,25,18,2,3,26,11,26,11,24,28,31,32,
19,4,1,9,17,17,10,4,10,11,20,17,7,4,21,4,1,19,2,19,10,3,25,18,19,11,21,17,10,9,17,10,19,4,3,12,11,3,19,27,9,18,2,1,11,27,2,4,20,3,10,19,28,25,21,20,3,1,3,27,8,9,1,27,25,25,11,25,19,1,25,4,3,12,19,
23,18,28,18,21,18,28,18,10,4,11,20,28,26,2,18,21,10,27,9,20,4,12,25,12,25,10,20,9,17,18,26,28,17,11,26,28,18,9,25,20,1,2,26,10,20,4,4,12,4,2,27,2,18,27,19,9,12,26,9,20,18,17,4,27,2,26,3,17,17,4,4,9,17,19,
25,28,24,27,3,20,10,19,5,20,28,20,17,4,20,11,11,19,25,5,20,17,26,18,4,25,2,11,10,11,12,9,25,20,12,17,1,12,26,2,27,17,28,20,12,19,11,27,25,7,11,4,19,9,3,26,12,3,25,28,15,11,11,1,20,12,12,27,26,11,4,4,28,25,27,
18,12,23,17,26,27,18,11,9,9,25,25,1,18,20,12,3,1,26,25,9,20,4,9,10,2,1,28,3,20,18,25,9,25,2,27,1,20,12,11,18,12,4,4,2,11,26,14,2,19,17,28,10,19,26,19,17,2,9,27,12,2,25,3,18,18,17,9,3,9,12,32,28,27,10,
12,2,19,28,17,10,17,18,3,3,4,16,28,7,18,20,12,4,28,19,10,2,20,19,25,17,4,18,25,28,4,27,2,9,12,17,18,1,26,20,4,25,26,31,28,11,32,31,20,11,4,3,2,11,18,10,18,20,8,2,10,1,20,11,9,27,4,9,4,4,12,17,10,26,12,
1,10,20,11,24,32,9,25,10,25,19,26,20,26,19,19,11,26,27,2,27,11,4,18,2,9,10,15,2,32,4,17,4,2,28,26,27,17,25,1,19,10,1,5,25,11,27,17,3,3,10,2,4,17,26,30,24,11,20,11,2,18,19,9,11,2,14,10,18,19,4,19,4,17,26,
11,10,19,23,4,30,9,7,13,26,28,4,11,3,26,9,9,9,11,7,9,25,10,11,9,11,3,12,3,3,1,10,4,18,32,10,28,19,19,11,3,11,20,26,19,12,28,29,30,28,17,9,7,4,2,19,27,25,4,9,19,7,20,9,28,2,10,3,20,24,19,12,11,12,17,
28,13,10,11,26,25,25,18,2,18,20,17,6,1,9,18,26,11,26,10,18,12,11,1,16,11,17,10,25,20,25,20,8,10,11,1,17,1,20,7,4,26,4,17,28,26,17,18,3,25,2,9,9,3,27,11,1,3,10,13,17,13,9,3,26,12,14,20,17,10,11,10,14,20,10,
26,20,11,7,10,2,23,2,27,18,27,12,2,1,19,26,12,19,2,18,20,12,4,20,18,26,11,20,9,18,9,28,17,18,19,18,9,1,25,2,4,3,9,12,28,19,27,4,20,2,1,4,29,2,4,19,25,17,18,19,10,17,28,20,4,26,1,1,17,7,2,19,12,24,4,
28,12,25,9,2,17,20,12,1,4,20,20,20,9,2,2,12,11,28,3,10,25,25,12,25,2,18,1,1,4,3,1,1,18,3,10,10,12,18,19,19,11,3,2,11,4,9,28,1,4,9,10,21,26,12,10,2,26,27,3,11,18,25,12,6,20,11,18,9,26,25,26,6,17,9,
25,4,27,10,25,1,28,2,27,18,12,25,28,4,12,19,30,25,25,6,1,26,4,18,25,2,19,11,11,4,19,27,10,4,20,18,21,10,11,24,11,27,4,10,4,27,27,20,9,6,17,28,27,4,19,3,27,4,9,9,8,10,12,25,26,18,12,27,13,3,26,19,1,25,30,
18,14,18,20,19,12,2,17,9,26,11,2,27,20,17,3,11,27,1,9,18,26,2,19,1,28,19,6,11,2,9,10,2,1,4,26,27,20,12,12,4,2,2,2,2,12,11,13,1,32,10,17,28,12,1,20,1,14,27,28,1,27,28,13,25,17,27,1,17,1,26,12,10,3,9,
2,19,11,27,12,28,26,17,27,2,25,2,20,3,1,29,28,11,10,22,8,27,28,10,12,27,20,25,25,16,18,22,9,9,12,1,1,15,27,4,19,27,24,2,28,3,20,17,27,9,28,26,19,4,25,20,12,20,28,2,10,17,1,6,27,19,3,9,20,3,2,4,31,10,25,
4,2,12,28,11,3,9,19,12,2,20,1,4,3,20,25,11,4,30,19,17,12,20,27,11,4,26,19,26,17,18,10,26,19,1,20,1,3,3,4,25,9,18,4,12,26,28,17,2,10,25,18,27,17,32,25,11,25,2,10,11,3,15,26,18,3,19,18,11,8,2,2,1,1,4,
12,20,18,4,11,26,9,18,26,26,20,20,25,18,28,19,4,2,11,26,17,3,11,25,27,27,27,22,25,18,29,19,12,17,9,25,2,11,4,27,28,11,26,26,27,11,9,11,28,10,2,4,25,2,10,18,28,1,19,26,4,1,26,25,12,4,20,17,17,2,27,19,10,9,4,
24,11,3,20,18,25,20,16,11,2,17,14,10,12,1,27,26,25,32,28,12,2,24,28,9,28,12,3,2,28,20,3,32,10,29,3,20,19,5,3,11,20,25,28,15,20,1,27,2,20,1,7,28,20,2,10,18,28,1,3,26,25,12,25,12,28,12,27,17,26,3,19,4,4,17,
17,2,26,13,18,1,2,20,2,28,23,10,15,18,20,26,3,19,1,1,1,2,10,27,20,3,3,3,28,4,12,27,3,19,18,9,9,11,12,22,18,12,12,11,18,23,25,19,11,26,10,10,9,19,11,12,12,18,3,19,1,12,27,25,11,3,9,10,12,11,12,1,19,10,2,
9,28,19,11,8,4,9,25,19,13,21,19,26,32,20,2,20,27,22,22,25,9,26,18,4,9,7,21,28,9,26,19,26,10,3,27,1,20,15,11,2,3,9,28,1,10,22,12,28,9,28,4,4,17,11,3,2,11,17,17,25,12,19,1,27,28,10,11,2,3,25,10,20,28,17,
9,3,4,12,2,10,8,28,12,27,14,15,12,12,3,28,4,18,9,24,11,20,17,12,4,3,2,10,11,1,27,30,17,4,25,12,11,4,17,1,3,14,4,2,17,16,10,20,3,3,1,11,4,4,12,18,1,18,25,3,11,17,27,17,18,19,2,3,2,10,2,10,17,9,10,
19,20,10,15,26,17,3,28,19,32,22,3,19,28,4,25,11,22,18,3,25,3,12,28,12,3,27,26,4,32,9,10,9,10,1,25,2,20,2,10,27,26,26,11,1,17,20,29,3,1,29,32,18,18,4,3,2,10,27,17,17,2,32,19,1,3,9,12,9,28,25,1,1,4,12,
28,7,26,12,26,9,18,11,17,11,9,26,4,19,20,9,19,3,1,28,2,12,11,17,20,28,28,11,28,20,9,2,20,18,27,10,4,17,4,18,27,27,27,1,27,4,2,2,4,4,25,2,28,1,1,22,25,25,28,20,26,10,26,1,1,12,19,17,12,19,4,20,9,19,1,
9,12,2,1,10,10,1,3,2,26,2,12,6,9,25,18,12,1,17,20,26,3,18,26,20,1,20,3,25,19,18,25,9,25,9,4,4,26,19,3,20,2,25,20,18,25,25,12,27,20,20,20,32,4,26,15,26,12,11,19,27,26,20,18,24,1,25,13,28,26,28,28,3,11,31,
1,26,26,26,2,17,1,28,9,28,26,9,27,11,28,26,4,11,5,10,1,21,12,28,10,22,9,2,21,10,9,20,19,19,17,27,13,1,27,1,3,28,25,9,21,2,23,12,1,18,11,12,18,13,3,28,31,10,17,1,12,3,2,19,19,22,4,11,25,28,32,25,18,18,12,
26,32,28,4,4,19,1,1,12,17,26,20,24,26,27,4,2,3,17,26,19,26,9,10,2,1,6,20,12,2,25,27,5,2,19,19,10,9,10,2,20,19,2,14,17,25,2,19,4,18,14,31,19,29,17,19,25,12,1,12,2,9,2,17,17,17,10,9,17,29,4,3,11,10,9,
2,4,3,19,18,1,17,1,27,25,3,2,27,12,31,25,17,2,26,1,12,1,12,20,11,1,27,10,17,11,20,11,27,28,25,27,1,12,11,12,12,18,9,27,24,1,2,17,28,19,27,28,20,2,2,27,11,18,12,1,1,26,10,18,1,2,27,31,4,27,1,19,4,18,17,
28,30,12,20,12,26,4,1,27,19,20,17,32,10,9,25,28,26,4,27,18,12,16,20,28,9,28,2,3,27,2,27,26,20,20,2,12,4,32,9,25,9,26,10,26,24,3,18,25,2,15,27,26,20,2,1,9,2,28,5,4,28,1,20,10,19,26,1,2,12,2,18,3,28,10,
6,19,26,11,20,11,26,2,10,3,20,12,9,2,19,19,28,25,25,18,9,28,20,29,9,28,11,11,25,10,2,26,12,28,22,9,12,7,27,12,24,19,26,9,26,11,20,21,19,2,9,27,3,11,17,9,28,19,26,18,27,10,4,25,3,26,20,4,11,10,20,3,10,19,3,
2,11,11,25,26,18,9,19,9,25,20,11,9,28,12,26,28,2,25,20,20,4,18,1,29,11,31,14,2,20,11,9,19,29,28,12,16,2,11,12,28,2,18,27,19,28,20,11,10,1,12,10,11,11,17,30,18,1,9,9,4,11,15,1,17,4,3,19,12,9,10,2,11,8,3,
17,25,8,26,31,17,27,18,11,12,27,17,28,10,5,28,9,18,27,2,9,26,2,27,9,9,3,15,9,12,18,5,20,27,12,1,25,10,9,1,25,17,25,28,26,3,2,18,18,3,10,28,3,27,20,4,10,1,10,3,18,4,20,10,18,17,26,2,4,4,3,2,28,9,28,
9,23,4,18,12,2,2,27,27,10,10,19,20,12,18,20,26,19,4,2,3,31,20,27,2,27,4,27,9,18,20,25,26,2,4,17,28,10,1,2,2,11,9,3,2,4,2,25,5,1,3,24,9,3,19,9,10,28,9,25,17,17,4,26,17,11,11,29,2,28,21,26,25,1,17,
18,1,17,10,20,11,32,1,4,19,15,20,17,2,19,2,17,20,25,1,28,12,10,3,19,6,7,27,12,27,3,26,26,4,1,25,1,28,12,28,10,2,1,4,10,11,28,9,2,18,26,28,25,10,10,20,12,26,12,6,2,3,9,11,2,2,11,12,27,16,19,10,12,2,6,
20,20,12,18,27,9,27,20,27,25,32,28,26,1,27,3,20,18,12,2,9,17,26,11,3,9,14,26,11,25,10,20,1,9,10,12,18,11,8,9,19,9,2,27,9,27,20,3,9,4,26,18,26,17,20,2,11,9,2,27,11,28,18,4,11,2,19,12,22,12,4,28,26,18,11,
20,10,26,10,1,25,11,25,9,10,27,3,30,12,19,20,18,27,4,2,25,19,1,12,17,21,18,11,3,10,11,1,18,17,2,25,5,10,10,11,3,27,18,19,4,27,17,25,19,17,1,10,2,28,1,20,1,28,18,20,28,7,10,26,18,3,9,1,25,3,17,18,1,20,2,
27,32,25,18,2,17,1,11,17,28,1,12,28,27,4,26,3,12,2,1,12,11,29,25,4,3,28,3,20,12,2,4,18,11,1,17,25,1,8,1,2,9,16,17,25,18,11,11,3,3,1,1,25,17,20,4,10,26,8,18,2,28,30,20,3,27,9,26,27,12,4,28,2,10,9,
3,26,1,28,9,10,18,10,10,9,27,18,13,16,28,4,28,19,15,3,25,19,25,14,15,10,11,18,3,3,6,25,2,20,19,26,18,25,19,26,2,11,12,4,11,3,2,12,15,26,12,11,28,11,31,12,4,22,1,17,26,2,26,18,19,12,26,3,1,20,25,26,3,10,26,
3,18,14,12,27,19,10,1,1,3,28,27,12,12,19,17,30,18,3,20,27,25,27,21,1,3,4,20,20,18,1,2,28,28,11,20,4,13,18,9,1,19,25,9,1,12,19,19,25,10,10,10,19,17,11,9,2,12,27,27,18,19,1,20,9,17,9,28,26,13,9,19,3,19,27,
20,11,27,26,25,17,26,28,3,23,9,27,10,13,18,1,19,10,9,4,4,3,3,3,13,17,26,3,3,1,28,2,24,17,9,28,26,27,18,12,4,19,28,28,12,4,10,1,28,2,9,18,25,4,16,18,24,3,7,2,26,12,27,26,32,25,10,3,27,17,1,12,2,9,4,
26,27,12,20,10,27,3,26,20,2,10,12,19,11,2,2,19,9,20,28,31,17,4,12,25,2,25,10,10,17,25,6,28,9,2,27,9,10,1,20,2,26,1,3,3,9,26,27,26,28,12,28,28,12,2,19,25,26,10,11,3,20,12,14,1,26,10,2,12,20,12,17,11,22,27,
2,20,1,4,20,12,31,1,26,18,1,2,1,25,18,3,8,18,10,17,11,1,1,3,4,19,28,28,4,19,16,10,3,9,20,18,20,9,8,19,20,10,28,17,9,25,4,11,2,28,5,2,4,9,17,26,19,11,11,26,9,27,30,32,20,12,20,28,13,18,32,3,26,25,19,
3,11,3,11,12,19,2,27,24,10,16,28,18,28,11,30,20,14,9,13,25,20,12,1,12,3,27,4,9,27,9,26,20,27,12,20,4,11,3,10,20,19,9,1,11,9,24,20,19,7,11,4,15,12,12,10,11,11,17,17,11,25,4,12,10,19,19,20,10,4,4,26,10,10,10,
25,18,17,27,12,25,10,9,28,11,10,17,2,19,9,12,1,9,11,1,27,32,28,17,20,26,18,20,2,1,9,12,11,17,1,12,11,9,10,6,20,19,3,9,11,27,12,10,27,12,2,8,4,2,3,12,2,27,1,5,9,27,26,18,20,10,25,26,17,30,26,4,9,26,27,
20,28,28,1,20,2,26,27,27,18,11,9,19,25,11,25,25,3,19,4,20,27,20,9,2,28,4,2,4,2,1,18,4,8,25,4,4,3,3,28,2,21,27,26,1,11,20,19,28,20,2,12,17,12,2,1,11,17,2,5,17,4,2,2,25,28,9,12,30,28,9,18,18,11,11,
15,12,27,4,12,12,12,28,1,4,19,15,12,12,17,11,31,26,17,25,18,10,2,11,25,19,16,4,25,12,2,2,9,3,28,20,12,15,9,16,26,25,23,14,2,4,19,4,26,10,20,12,20,9,25,9,2,20,26,2,2,12,26,19,26,26,26,5,28,14,22,1,25,10,2
</data>
 </layer>
 <layer id="3" name="Barrier" width="75" height="75">
  <data encoding="csv">
0,0,0,0,0,0,0,0,0,0,0,0,0,0,0,0,0,0,0,0,0,0,0,0,0,0,0,0,0,0,0,0,0,0,0,0,0,0,0,0,0,0,0,0,0,0,0,0,0,0,0,0,0,0,0,0,0,0,0,0,0,0,0,0,0,0,0,0,0,0,0,0,0,0,0,
0,0,0,0,0,0,0,0,0,0,0,0,0,0,0,0,0,0,0,0,0,0,0,0,0,0,0,0,0,0,0,0,0,0,0,0,0,0,0,0,0,0,0,0,0,0,0,0,0,0,0,0,0,0,0,0,0,0,0,0,0,0,0,0,0,0,0,0,0,0,0,0,0,0,0,
0,0,0,0,0,0,0,0,0,0,0,0,0,0,0,0,0,0,0,0,0,0,0,0,0,0,0,0,0,0,0,0,0,0,0,0,0,0,0,0,0,0,0,0,0,0,0,0,0,0,0,0,0,0,0,0,0,0,0,0,0,0,0,0,0,0,0,0,0,0,0,0,0,0,0,
0,0,0,0,0,0,0,0,0,0,0,0,0,0,0,0,0,0,0,0,0,0,0,0,0,0,0,0,0,0,0,0,0,0,0,0,0,0,0,0,0,0,0,0,0,0,0,0,0,0,0,0,0,0,0,0,0,0,0,0,0,0,0,0,0,0,0,0,0,0,0,0,0,0,0,
0,0,0,0,0,0,0,0,0,0,0,0,0,0,0,0,0,0,0,0,0,0,0,0,0,0,0,0,0,0,0,0,0,0,0,0,0,0,0,0,0,0,0,0,0,0,0,0,0,0,0,0,0,0,0,0,0,0,0,0,0,0,0,0,0,0,0,0,0,0,0,0,0,0,0,
0,0,0,0,0,0,0,0,0,0,0,0,0,0,0,0,0,0,0,0,0,0,0,0,0,0,0,0,0,0,0,0,0,0,0,0,0,0,0,0,0,0,0,0,0,0,0,0,0,0,0,0,0,0,0,0,0,0,0,0,0,0,0,0,0,0,0,0,0,0,0,0,0,0,0,
0,0,0,0,0,0,0,0,0,0,0,0,0,0,0,0,0,0,0,0,0,0,0,0,0,0,0,0,0,0,0,0,0,0,0,0,0,0,0,0,0,0,0,0,0,0,0,0,0,0,0,0,0,0,0,0,0,0,0,0,0,0,0,0,0,0,0,0,0,0,0,0,0,0,0,
0,0,0,0,0,0,0,0,0,0,0,0,0,0,0,0,0,0,0,0,0,0,0,0,0,0,0,0,0,0,0,0,0,0,0,0,0,0,0,0,0,0,0,0,0,0,0,0,0,0,0,0,0,0,0,0,0,0,0,0,0,0,0,0,0,0,0,0,0,0,0,0,0,0,0,
0,0,0,0,0,0,0,0,0,0,0,0,0,0,0,0,0,0,0,0,0,0,0,0,0,0,0,0,0,0,0,0,0,0,0,0,0,0,0,0,0,0,0,0,0,0,0,0,0,0,0,0,0,0,0,0,0,0,0,0,0,0,0,0,0,0,0,0,0,0,0,0,0,0,0,
0,0,0,0,0,0,0,0,0,0,0,0,0,0,0,0,0,0,0,0,0,0,0,0,0,0,0,0,0,0,0,0,0,0,0,0,0,0,0,0,0,0,0,0,0,0,0,0,0,0,0,0,0,0,0,0,0,0,0,0,0,0,0,0,0,0,0,0,0,0,0,0,0,0,0,
0,0,0,0,0,0,0,0,0,0,0,0,0,0,0,0,0,0,0,0,33,33,33,33,33,33,33,33,33,33,0,0,0,0,0,0,0,0,0,0,0,0,0,0,0,0,0,0,0,0,0,0,0,0,0,0,0,0,0,0,0,0,0,0,0,0,0,0,0,0,0,0,0,0,0,
0,0,0,0,0,0,0,0,0,0,0,0,0,0,0,0,0,0,0,0,33,33,33,33,33,33,33,33,33,33,0,0,0,0,0,0,0,0,0,0,0,0,0,0,0,0,0,0,0,0,0,0,0,0,0,0,0,0,0,0,0,0,0,0,0,0,0,0,0,0,0,0,0,0,0,
0,0,0,0,0,0,0,0,0,0,0,0,0,0,0,0,0,0,0,0,33,33,33,33,33,33,33,33,33,33,0,0,0,0,0,0,0,0,0,0,0,0,0,0,0,0,0,0,0,0,0,0,0,0,0,0,0,0,0,0,0,0,0,0,0,0,0,0,0,0,0,0,0,0,0,
0,0,0,0,0,0,0,0,0,0,0,0,0,0,0,0,0,0,0,0,33,33,33,33,33,33,33,33,33,33,0,0,0,0,0,0,0,0,0,0,0,0,0,0,0,0,0,0,0,0,0,0,0,0,0,0,0,0,0,0,0,0,0,0,0,0,0,0,0,0,0,0,0,0,0,
0,0,0,0,0,0,0,0,0,0,0,0,0,0,0,0,0,0,0,0,33,33,33,33,33,33,33,33,33,33,0,0,0,0,0,0,0,0,0,0,0,0,0,0,0,0,0,0,0,0,0,0,0,0,0,0,0,0,0,0,0,0,0,0,0,0,0,0,0,0,0,0,0,0,0,
0,0,0,0,0,0,0,0,0,0,0,0,0,0,0,0,0,0,0,0,33,33,33,33,33,33,33,33,33,33,0,0,0,0,0,0,0,0,0,0,0,0,0,0,0,0,0,0,0,0,0,0,0,0,0,0,0,0,0,0,0,0,0,0,0,0,0,0,0,0,0,0,0,0,0,
0,0,0,0,0,0,0,0,0,0,0,0,0,0,0,0,0,0,0,0,33,33,33,33,33,33,33,33,33,33,0,0,0,0,0,0,0,0,0,0,0,0,0,0,0,0,0,0,0,0,0,0,0,0,0,0,0,0,0,0,0,0,0,0,0,0,0,0,0,0,0,0,0,0,0,
0,0,0,0,0,0,0,0,0,0,0,0,0,0,0,0,0,0,0,0,33,33,33,33,33,33,33,33,33,33,0,0,0,0,0,0,0,0,0,0,0,0,0,0,0,0,0,0,0,0,0,0,0,0,0,0,0,0,0,0,0,0,0,0,0,0,0,0,0,0,0,0,0,0,0,
0,0,0,0,0,0,0,0,0,0,0,0,0,0,0,0,0,0,0,0,33,33,33,33,33,33,33,33,33,33,0,0,0,0,0,0,0,0,0,0,0,0,0,0,0,0,0,0,0,0,0,0,0,0,0,0,0,0,0,0,0,0,0,0,0,0,0,0,0,0,0,0,0,0,0,
0,0,0,0,0,0,0,0,0,0,0,0,0,0,0,0,0,0,0,0,33,33,33,33,33,33,33,33,33,33,0,0,0,0,0,0,0,0,0,0,0,0,0,0,0,0,0,0,0,0,0,0,0,0,0,0,0,0,0,0,0,0,0,0,0,0,0,0,0,0,0,0,0,0,0,
0,0,0,0,0,0,0,0,0,0,0,0,0,0,0,0,0,0,0,0,0,0,0,0,0,0,0,0,0,0,0,0,0,0,0,0,0,0,0,0,33,33,33,33,33,33,33,33,33,33,0,0,0,0,0,0,0,0,0,0,0,0,0,0,0,0,0,0,0,0,0,0,0,0,0,
0,0,0,0,0,0,0,0,0,0,0,0,0,0,0,0,0,0,0,0,0,0,0,0,0,0,0,0,0,0,0,0,0,0,0,0,0,0,0,0,33,33,33,33,33,33,33,33,33,33,0,0,0,0,0,0,0,0,0,0,0,0,0,0,0,0,0,0,0,0,0,0,0,0,0,
0,0,0,0,0,0,0,0,0,0,0,0,0,0,0,0,0,0,0,0,0,0,0,0,0,0,0,0,0,0,0,0,0,0,0,0,0,0,0,0,33,33,33,33,33,33,33,33,33,33,0,0,0,0,0,0,0,0,0,0,0,0,0,0,0,0,0,0,0,0,0,0,0,0,0,
0,0,0,0,0,0,0,0,0,0,0,0,0,0,0,0,0,0,0,0,0,0,0,0,0,0,0,0,0,0,0,0,0,0,0,0,0,0,0,0,33,33,33,33,33,33,33,33,33,33,0,0,0,0,0,0,0,0,0,0,0,0,0,0,0,0,0,0,0,0,0,0,0,0,0,
0,0,0,0,0,0,0,0,0,0,0,0,0,0,0,0,0,0,0,0,0,0,0,0,0,0,0,0,0,0,0,0,0,0,0,0,0,0,0,0,33,33,33,33,33,33,33,33,33,33,0,0,0,0,0,0,0,0,0,0,0,0,0,0,0,0,0,0,0,0,0,0,0,0,0,
0,0,0,0,0,0,0,0,0,0,0,0,0,0,0,0,0,0,0,0,0,0,0,0,0,0,0,0,0,0,0,0,0,0,0,0,0,0,0,0,33,33,33,33,33,33,33,33,33,33,0,0,0,0,0,0,0,0,0,0,0,0,0,0,0,0,0,0,0,0,0,0,0,0,0,
0,0,0,0,0,0,0,0,0,0,0,0,0,0,0,0,0,0,0,0,0,0,0,0,0,0,0,0,0,0,0,0,0,0,0,0,0,0,0,0,33,33,33,33,33,33,33,33,33,33,0,0,0,0,0,0,0,0,0,0,0,0,0,0,0,0,0,0,0,0,0,0,0,0,0,
0,0,0,0,0,0,0,0,0,0,0,0,0,0,0,0,0,0,0,0,0,0,0,0,0,0,0,0,0,0,0,0,0,0,0,0,0,0,0,0,33,33,33,33,33,33,33,33,33,33,0,0,0,0,0,0,0,0,0,0,0,0,0,0,0,0,0,0,0,0,0,0,0,0,0,
0,0,0,0,0,0,0,0,0,0,0,0,0,0,0,0,0,0,0,0,0,0,0,0,0,0,0,0,0,0,0,0,0,0,0,0,0,0,0,0,33,33,33,33,33,33,33,33,33,33,0,0,0,0,0,0,0,0,0,0,0,0,0,0,0,0,0,0,0,0,0,0,0,0,0,
0,0,0,0,0,0,0,0,0,0,0,0,0,0,0,0,0,0,0,0,0,0,0,0,0,0,0,0,0,0,0,0,0,0,0,0,0,0,0,0,33,33,33,33,33,33,33,33,33,33,0,0,0,0,0,0,0,0,0,0,0,0,0,0,0,0,0,0,0,0,0,0,0,0,0,
0,0,0,0,0,0,0,0,0,0,0,0,0,0,0,0,0,0,0,0,0,0,0,0,0,0,0,0,0,0,0,0,0,0,0,0,0,0,0,0,0,0,0,0,0,0,0,0,0,0,0,0,0,0,0,0,0,0,0,0,0,0,0,0,0,0,0,0,0,0,0,0,0,0,0,
0,0,0,0,0,0,0,0,0,0,0,0,0,0,0,0,0,0,0,0,0,0,0,0,0,0,0,0,0,0,0,0,0,0,0,0,0,0,0,0,0,0,0,0,0,0,0,0,0,0,0,0,0,0,0,0,0,0,0,0,0,0,0,0,0,0,0,0,0,0,0,0,0,0,0,
0,0,0,0,0,0,0,0,0,0,0,0,0,0,0,0,0,0,0,0,0,0,0,0,0,0,0,0,0,0,0,0,0,0,0,0,0,0,0,0,0,0,0,0,0,0,0,0,0,0,0,0,0,0,0,0,0,0,0,0,0,0,0,0,0,0,0,0,0,0,0,0,0,0,0,
0,0,0,0,0,0,0,0,0,0,0,0,0,0,0,0,0,0,0,0,0,0,0,0,0,0,0,0,0,0,0,0,0,0,0,0,0,0,0,0,0,0,0,0,0,0,0,0,0,0,0,0,0,0,0,0,0,0,0,0,0,0,0,0,0,0,0,0,0,0,0,0,0,0,0,
0,0,0,0,0,0,0,0,0,0,0,0,0,0,0,0,0,0,0,0,0,0,0,0,0,0,0,0,0,0,0,0,0,0,0,0,0,0,0,0,0,0,0,0,0,0,0,0,0,0,0,0,0,0,0,0,0,0,0,0,0,0,0,0,0,0,0,0,0,0,0,0,0,0,0,
0,0,0,0,0,0,0,0,0,0,0,0,0,0,0,0,0,0,0,0,0,0,0,0,0,0,0,0,0,0,0,0,0,0,0,0,0,0,0,0,0,0,0,0,0,0,0,0,0,0,0,0,0,0,0,0,0,0,0,0,0,0,0,0,0,0,0,0,0,0,0,0,0,0,0,
0,0,0,0,0,0,0,0,0,0,0,0,0,0,0,0,0,0,0,0,0,0,0,0,0,0,0,0,0,0,0,0,0,0,0,0,0,0,0,0,0,0,0,0,0,0,0,0,0,0,0,0,0,0,0,0,0,0,0,0,0,0,0,0,0,0,0,0,0,0,0,0,0,0,0,
0,0,0,0,0,0,0,0,0,0,0,0,0,0,0,0,0,0,0,0,0,0,0,0,0,0,0,0,0,0,0,0,0,0,0,0,0,0,0,0,0,0,0,0,0,0,0,0,0,0,0,0,0,0,0,0,0,0,0,0,0,0,0,0,0,0,0,0,0,0,0,0,0,0,0,
0,0,0,0,0,0,0,0,0,0,0,0,0,0,0,0,0,0,0,0,0,0,0,0,0,0,0,0,0,0,0,0,0,0,0,0,0,0,0,0,0,0,0,0,0,0,0,0,0,0,0,0,0,0,0,0,0,0,0,0,0,0,0,0,0,0,0,0,0,0,0,0,0,0,0,
0,0,0,0,0,0,0,0,0,0,0,0,0,0,0,0,0,0,0,0,0,0,0,0,0,0,0,0,0,0,0,0,0,0,0,0,0,0,0,0,0,0,0,0,0,0,0,0,0,0,0,0,0,0,0,0,0,0,0,0,0,0,0,0,0,0,0,0,0,0,0,0,0,0,0,
0,0,0,0,0,0,0,0,0,0,0,0,0,0,0,0,0,0,0,0,0,0,0,0,0,0,0,0,0,0,0,0,0,0,0,0,0,0,0,0,0,0,0,0,0,0,0,0,0,0,0,0,0,0,0,0,0,0,0,0,0,0,0,0,0,0,0,0,0,0,0,0,0,0,0,
0,0,0,0,0,0,0,0,0,0,0,0,0,0,0,0,0,0,0,0,0,0,0,0,0,0,0,0,0,0,0,0,0,0,0,0,0,0,0,0,0,0,0,0,0,0,0,0,0,0,0,0,0,0,0,0,0,0,0,0,0,0,0,0,0,0,0,0,0,0,0,0,0,0,0,
0,0,0,0,0,0,0,0,0,0,0,0,0,0,0,0,0,0,0,0,0,0,0,0,0,0,0,0,0,0,0,0,0,0,0,0,0,0,0,0,0,0,0,0,0,0,0,0,0,0,0,0,0,0,0,0,0,0,0,0,0,0,0,0,0,0,0,0,0,0,0,0,0,0,0,
0,0,0,0,0,0,0,0,0,0,0,0,0,0,0,0,0,0,0,0,0,0,0,0,0,0,0,0,0,0,0,0,0,0,0,0,0,0,0,0,0,0,0,0,0,0,0,0,0,0,0,0,0,0,0,0,0,0,0,0,0,0,0,0,0,0,0,0,0,0,0,0,0,0,0,
0,0,0,0,0,0,0,0,0,0,0,0,0,0,0,0,0,0,0,0,0,0,0,0,0,0,0,0,0,0,0,0,0,0,0,0,0,0,0,0,0,0,0,0,0,0,0,0,0,0,0,0,0,0,0,0,0,0,0,0,0,0,0,0,0,0,0,0,0,0,0,0,0,0,0,
0,0,0,0,0,0,0,0,0,0,0,0,0,0,0,0,0,0,0,0,0,0,0,0,0,0,0,0,0,0,0,0,0,0,0,0,0,0,0,0,0,0,0,0,0,0,0,0,0,0,0,0,0,0,0,0,0,0,0,0,0,0,0,0,0,0,0,0,0,0,0,0,0,0,0,
0,0,0,0,0,0,0,0,0,0,0,0,0,0,0,0,0,0,0,0,0,0,0,0,0,0,0,0,0,0,0,0,0,0,0,0,0,0,0,0,0,0,0,0,0,0,0,0,0,0,0,0,0,0,0,0,0,0,0,0,0,0,0,0,0,0,0,0,0,0,0,0,0,0,0,
0,0,0,0,0,0,0,0,0,0,0,0,0,0,0,0,0,0,0,0,0,0,0,0,0,0,0,0,0,0,0,0,0,0,0,0,0,0,0,0,0,0,0,0,0,0,0,0,0,0,0,0,0,0,0,0,0,0,0,0,0,0,0,0,0,0,0,0,0,0,0,0,0,0,0,
0,0,0,0,0,0,0,0,0,0,0,0,0,0,0,0,0,0,0,0,0,0,0,0,0,0,0,0,0,0,0,0,0,0,0,0,0,0,0,0,0,0,0,0,0,0,0,0,0,0,0,0,0,0,0,0,0,0,0,0,0,0,0,0,0,0,0,0,0,0,0,0,0,0,0,
0,0,0,0,0,0,0,0,0,0,0,0,0,0,0,0,0,0,0,0,0,0,0,0,0,0,0,0,0,0,0,0,0,0,0,0,0,0,0,0,0,0,0,0,0,0,0,0,0,0,0,0,0,0,0,0,0,0,0,0,0,0,0,0,0,0,0,0,0,0,0,0,0,0,0,
0,0,0,0,0,0,0,0,0,0,0,0,0,0,0,0,0,0,0,0,0,0,0,0,0,0,0,0,0,0,0,0,0,0,0,0,0,0,0,0,0,0,0,0,0,0,0,0,0,0,0,0,0,0,0,0,0,0,0,0,0,0,0,0,0,0,0,0,0,0,0,0,0,0,0,
0,0,0,0,0,0,0,0,0,0,0,0,0,0,0,0,0,0,0,0,0,0,0,0,0,0,0,0,0,0,0,0,0,0,0,0,0,0,0,0,0,0,0,0,0,0,0,0,0,0,0,0,0,0,0,0,0,0,0,0,0,0,0,0,0,0,0,0,0,0,0,0,0,0,0,
0,0,0,0,0,0,0,0,0,0,0,0,0,0,0,0,0,0,0,0,0,0,0,0,0,0,0,0,0,0,0,0,0,0,0,0,0,0,0,0,0,0,0,0,0,0,0,0,0,0,0,0,0,0,0,0,0,0,0,0,0,0,0,0,0,0,0,0,0,0,0,0,0,0,0,
0,0,0,0,0,0,0,0,80,0,0,0,0,0,0,0,0,0,0,0,0,0,0,0,0,0,0,0,0,0,0,0,0,0,0,0,0,0,0,0,0,0,0,0,0,0,0,0,0,0,0,0,0,0,0,0,0,0,0,0,0,0,0,0,0,0,0,0,0,0,0,0,0,0,0,
0,0,0,0,0,0,0,0,0,0,0,0,0,0,0,0,0,0,0,0,0,0,0,0,0,0,0,0,0,0,0,0,0,0,0,0,0,0,0,0,0,0,0,0,0,0,0,0,0,0,0,0,0,0,0,0,0,0,0,0,0,0,0,0,0,0,0,0,0,0,0,0,0,0,0,
0,0,0,0,0,0,0,0,0,0,0,0,0,0,0,0,0,0,0,0,0,0,0,0,0,0,0,0,0,0,0,0,0,0,0,0,0,0,0,0,0,0,0,0,0,0,0,0,0,0,0,0,0,0,0,0,0,0,0,0,0,0,0,0,0,0,0,0,0,0,0,0,0,0,0,
0,0,0,0,0,0,0,0,0,0,0,0,0,0,0,0,0,0,0,0,0,0,0,0,0,0,0,0,0,0,0,0,0,0,0,0,0,0,0,0,0,0,0,0,0,0,0,0,0,0,0,0,0,0,0,0,0,0,0,0,0,0,0,0,0,0,0,0,0,0,0,0,0,0,0,
0,0,0,0,0,0,0,0,0,0,0,0,0,0,0,0,0,0,0,0,0,0,0,0,0,0,0,0,0,0,0,0,0,0,0,0,0,0,0,0,0,0,0,0,0,0,0,0,0,0,0,0,0,0,0,0,0,0,0,0,0,0,0,0,0,0,0,0,0,0,0,0,0,0,0,
0,0,0,0,0,0,0,0,0,0,0,0,0,0,0,0,0,0,0,0,0,0,0,0,0,0,0,0,0,0,0,0,0,0,0,0,0,0,0,0,0,0,0,0,0,0,0,0,0,0,0,0,0,0,0,0,0,0,0,0,0,0,0,0,0,0,0,0,0,0,0,0,0,0,0,
0,0,0,0,0,0,0,0,0,0,0,0,0,0,0,0,0,0,0,0,0,0,0,0,0,0,0,0,0,0,0,0,0,0,0,0,0,0,0,0,0,0,0,0,0,0,0,0,0,0,0,0,0,0,0,0,0,0,0,0,0,0,0,0,0,0,0,0,0,0,0,0,0,0,0,
0,0,0,0,0,0,0,0,0,0,0,0,0,0,0,0,0,0,0,0,0,0,0,0,0,0,0,0,0,0,0,0,0,0,0,0,0,0,0,0,0,0,0,0,0,0,0,0,0,0,0,0,0,0,0,0,0,0,0,0,0,0,0,0,0,0,0,0,0,0,0,0,0,0,0,
0,0,0,0,0,0,0,0,0,0,0,0,0,0,0,0,0,0,0,0,0,0,0,0,0,0,0,0,0,0,0,0,0,0,0,0,0,0,0,0,0,0,0,0,0,0,0,0,0,0,0,0,0,0,0,0,0,0,0,0,0,0,0,0,0,0,0,0,0,0,0,0,0,0,0,
0,0,0,0,0,0,0,0,0,0,0,0,0,0,0,0,0,0,0,0,0,0,0,0,0,0,0,0,0,0,0,0,0,0,0,0,0,0,0,0,0,0,0,0,0,0,0,0,0,0,0,0,0,0,0,0,0,0,0,0,0,0,0,0,0,0,0,0,0,0,0,0,0,0,0,
0,0,0,0,0,0,0,0,0,0,0,0,0,0,0,0,0,0,0,0,0,0,0,0,0,0,0,0,0,0,0,0,0,0,0,0,0,0,0,0,0,0,0,0,0,0,0,0,0,0,0,0,0,0,0,0,0,0,0,0,0,0,0,0,0,0,0,0,0,0,0,0,0,0,0,
0,0,0,0,0,0,0,0,0,0,0,0,0,0,0,0,0,0,0,0,0,0,0,0,0,0,0,0,0,0,0,0,0,0,0,0,0,0,0,0,0,0,0,0,0,0,0,0,0,0,0,0,0,0,0,0,0,0,0,0,0,0,0,0,0,0,0,0,0,0,0,0,0,0,0,
0,0,0,0,0,0,0,0,0,0,0,0,0,0,0,0,0,0,0,0,0,0,0,0,0,0,0,0,0,0,0,0,0,0,0,0,0,0,0,0,0,0,0,0,0,0,0,0,0,0,0,0,0,0,0,0,0,0,0,0,0,0,0,0,0,0,0,0,0,0,0,0,0,0,0,
0,0,0,0,0,0,0,0,0,0,0,0,0,0,0,0,0,0,0,0,0,0,0,0,0,0,0,0,0,0,0,0,0,0,0,0,0,0,0,0,0,0,0,0,0,0,0,0,0,0,0,0,0,0,0,0,0,0,0,0,0,0,0,0,0,0,0,0,0,0,0,0,0,0,0,
0,0,0,0,0,0,0,0,0,0,0,0,0,0,0,0,0,0,0,0,0,0,0,0,0,0,0,0,0,0,0,0,0,0,0,0,0,0,0,0,0,0,0,0,0,0,0,0,0,0,0,0,0,0,0,0,0,0,0,0,0,0,0,0,0,0,0,0,0,0,0,0,0,0,0,
0,0,0,0,0,0,0,0,0,0,0,0,0,0,0,0,0,0,0,0,0,0,0,0,0,0,0,0,0,0,0,0,0,0,0,0,0,0,0,0,0,0,0,0,0,0,0,0,0,0,0,0,0,0,0,0,0,0,0,0,0,0,0,0,0,0,0,0,0,0,0,0,0,0,0,
0,0,0,0,0,0,0,0,0,0,0,0,0,0,0,0,0,0,0,0,0,0,0,0,0,0,0,0,0,0,0,0,0,0,0,0,0,0,0,0,0,0,0,0,0,0,0,0,0,0,0,0,0,0,0,0,0,0,0,0,0,0,0,0,0,0,0,0,0,0,0,0,0,0,0,
0,0,0,0,0,0,0,0,0,0,0,0,0,0,0,0,0,0,0,0,33,33,33,33,33,33,33,33,33,33,0,0,0,0,0,0,0,0,0,0,0,0,0,0,0,0,0,0,0,0,0,0,0,0,0,0,0,0,0,0,0,0,0,0,0,0,0,0,0,0,0,0,0,0,0,
0,0,0,0,0,0,0,0,0,0,0,0,0,0,0,0,0,0,0,0,33,33,33,33,33,33,33,33,33,33,0,0,0,0,0,0,0,0,0,0,0,0,0,0,0,0,0,0,0,0,0,0,0,0,0,0,0,0,0,0,0,0,0,0,0,0,0,0,0,0,0,0,0,0,0,
0,0,0,0,0,0,0,0,0,0,0,0,0,0,0,0,0,0,0,0,33,33,33,33,33,33,33,33,33,33,0,0,0,0,0,0,0,0,0,0,0,0,0,0,0,0,0,0,0,0,0,0,0,0,0,0,0,0,0,0,0,0,0,0,0,0,0,0,0,0,0,0,0,0,0,
0,0,0,0,0,0,0,0,0,0,0,0,0,0,0,0,0,0,0,0,33,33,33,33,33,33,33,33,33,33,0,0,0,0,0,0,0,0,0,0,0,0,0,0,0,0,0,0,0,0,0,0,0,0,0,0,0,0,0,0,0,0,0,0,0,0,0,0,0,0,0,0,0,0,0,
0,0,0,0,0,0,0,0,0,0,0,0,0,0,0,0,0,0,0,0,33,33,33,33,33,33,33,33,33,33,0,0,0,0,0,0,0,0,0,0,0,0,0,0,0,0,0,0,0,0,0,0,0,0,0,0,0,0,0,0,0,0,0,0,0,0,0,0,0,0,0,0,0,0,0
</data>
 </layer>
 <objectgroup id="6" name="Obstacles" visible="0">
  <object id="21" x="639.5" y="319.5" width="320.5" height="320"/>
  <object id="22" x="1280.67" y="639.333" width="320.667" height="320"/>
  <object id="23" x="639.333" y="2239.33" width="320" height="159.333"/>
 </objectgroup>
</map>
