<?xml version="1.0" encoding="UTF-8"?>
<map version="1.10" tiledversion="1.12.1" orientation="orthogonal" renderorder="right-down" width="25" height="25" tilewidth="32" tileheight="32" infinite="0" nextlayerid="3" nextobjectid="1">
 <tileset firstgid="1" source="grass.tsx"/>
 <tileset firstgid="65" source="props.tsx"/>
 <layer id="1" name="Grass" width="25" height="25">
  <data encoding="csv">
8,26,14,30,14,25,21,25,28,25,7,16,5,23,2,26,14,8,21,21,22,10,18,20,32,
23,29,3,10,7,20,25,28,17,10,61,50,34,41,42,49,49,34,33,50,33,49,58,55,4,
17,7,1,22,27,7,8,20,12,19,49,41,50,34,33,41,57,50,34,41,49,50,34,36,18,
18,17,26,13,24,10,4,24,13,21,50,42,5,17,26,25,7,19,26,12,49,42,50,52,3,
5,25,6,28,3,10,4,6,8,1,33,50,23,21,32,28,13,4,7,3,49,34,34,36,6,
31,21,3,6,6,22,5,23,26,7,42,33,10,26,31,16,15,17,5,24,33,42,50,52,6,
27,9,11,30,10,32,27,1,31,28,33,50,18,18,61,33,62,10,17,14,58,34,61,61,9,
26,19,5,17,25,1,3,20,2,6,42,50,49,42,41,41,42,44,25,15,11,5,27,13,17,
31,3,61,49,49,50,55,22,4,18,41,57,50,34,34,33,33,36,12,2,19,28,28,23,4,
10,23,58,41,41,42,42,4,2,32,34,33,15,1,33,41,50,36,13,2,29,24,25,15,18,
17,18,34,34,41,41,50,33,42,42,50,50,5,24,58,41,58,44,24,17,10,29,18,18,29,
26,29,58,33,42,57,50,50,42,42,50,49,31,21,12,1,19,15,16,29,32,1,11,31,1,
20,20,22,24,14,3,4,22,20,13,42,42,31,13,17,15,22,11,26,10,31,24,4,32,11,
31,29,25,27,16,26,23,3,7,4,50,33,4,19,19,17,7,4,18,32,26,25,11,13,14,
27,2,31,22,2,5,24,22,19,29,49,41,4,20,17,31,15,31,24,26,15,21,20,19,19,
5,6,30,9,24,22,10,14,2,17,33,42,57,33,50,49,49,50,33,55,16,12,30,9,25,
5,21,25,28,6,29,10,31,8,9,50,50,33,58,33,41,42,42,34,36,7,28,25,25,5,
28,8,61,57,34,55,28,11,21,14,50,41,36,12,17,1,33,49,58,52,2,6,9,10,17,
21,32,49,49,49,44,19,23,32,11,50,34,36,21,10,21,42,42,49,36,4,11,6,7,23,
31,18,50,42,42,50,42,58,49,34,50,50,52,12,9,29,58,50,33,44,10,1,26,7,4,
13,19,33,42,41,42,49,34,41,42,42,33,36,26,20,18,1,23,1,5,30,18,21,17,18,
4,21,58,41,50,60,19,27,3,9,33,50,60,6,10,21,18,22,10,27,3,19,18,29,23,
19,3,27,22,9,12,3,7,11,4,49,33,44,20,24,18,2,26,16,5,13,18,8,25,30,
32,18,8,10,8,24,29,28,21,10,57,33,52,26,14,16,25,1,8,23,12,19,28,25,14,
3,9,22,27,13,1,28,5,7,13,34,42,52,8,6,19,16,11,18,30,28,14,32,26,11
</data>
 </layer>
 <layer id="2" name="Props" width="25" height="25">
  <data encoding="csv">
0,0,0,0,0,0,0,0,0,0,0,0,0,0,0,0,0,0,0,0,0,0,0,0,0,
0,0,0,0,0,0,0,0,0,0,0,0,0,0,0,0,0,0,0,0,0,0,0,0,0,
0,307,0,0,0,0,0,0,0,0,0,0,0,0,0,0,0,0,0,0,0,0,0,0,0,
0,0,0,0,0,0,0,0,0,0,0,0,0,0,0,0,0,0,0,0,0,0,0,0,0,
0,0,0,0,0,305,0,0,0,0,0,0,0,306,0,0,306,0,0,0,0,0,0,0,0,
0,0,0,0,0,0,0,0,0,0,0,0,0,0,0,0,0,0,0,0,0,0,0,0,0,
306,305,0,0,0,0,0,0,305,0,0,0,0,0,0,0,0,0,0,0,0,0,0,0,0,
0,0,0,0,0,0,0,0,0,0,0,0,0,0,0,0,0,0,0,0,0,0,0,0,0,
0,0,0,0,0,0,0,0,0,0,0,0,0,0,0,0,0,0,0,306,0,0,0,0,0,
0,0,0,0,0,0,0,0,0,0,0,0,0,0,0,0,0,0,0,0,0,0,0,0,0,
0,0,0,0,0,0,0,0,0,0,0,0,0,0,0,0,0,0,0,0,0,0,0,0,0,
0,0,0,0,0,0,0,0,0,0,0,0,0,0,0,0,0,0,0,0,0,0,0,0,0,
0,0,0,0,0,0,0,0,0,0,0,0,0,0,306,0,0,0,0,0,0,0,0,0,0,
0,0,0,0,0,0,0,0,307,0,0,0,0,0,0,0,0,0,305,0,0,0,0,0,0,
0,307,0,0,0,0,0,0,0,0,0,0,0,0,0,0,0,166,0,0,0,0,0,0,0,
0,0,0,0,0,0,0,306,0,0,0,0,0,0,0,0,0,0,0,0,0,0,0,306,0,
0,0,0,0,0,0,0,305,0,0,0,0,0,0,0,0,0,0,0,0,0,0,0,0,0,
0,0,0,0,0,0,0,0,0,0,0,0,0,0,0,0,0,0,0,0,0,0,0,0,0,
0,0,0,0,0,0,0,0,0,0,0,0,0,0,0,0,0,0,0,0,0,0,0,0,0,
0,0,0,0,0,0,0,0,0,0,0,0,0,0,0,0,0,0,0,0,0,0,0,0,0,
0,0,0,0,0,0,0,0,0,0,0,0,0,0,0,0,0,0,0,0,0,0,307,0,0,
0,0,0,0,0,0,0,0,0,0,0,0,0,0,0,0,0,0,0,0,0,0,0,0,0,
0,0,0,0,0,0,0,0,0,0,0,0,0,0,0,0,0,0,0,0,0,0,0,0,0,
0,0,307,0,0,0,0,306,0,0,0,0,0,0,0,0,0,0,0,0,0,0,0,0,0,
0,0,0,0,0,0,0,0,0,0,0,0,0,0,0,307,0,0,0,0,0,0,0,0,0
</data>
 </layer>
</map>
